src/images/mediaLogos/lightTheme/ArchDaily.svg

<svg width="77" height="39" viewBox="0 0 77 39" fill="none" xmlns="http://www.w3.org/2000/svg">
<path d="M49.6963 35.1797L36.853 38.7278C36.5444 38.327 36.2385 37.9263 35.9339 37.5255C33.198 33.9132 30.4656 30.2996 27.7368 26.6847C27.5489 26.4476 27.4368 26.1595 27.4149 25.8578C27.3988 18.6128 27.3953 11.3686 27.4042 4.1254C27.4042 4.08265 27.4162 4.03856 27.4349 3.91165L40.2528 0.36084C40.9862 1.32135 41.7223 2.28587 42.4584 3.25306C44.7829 6.31226 47.1033 9.37369 49.4198 12.4373C49.5943 12.6576 49.6986 12.9252 49.719 13.2055C49.735 20.4487 49.7386 27.6924 49.7297 34.9365C49.7235 35.0182 49.7124 35.0994 49.6963 35.1797ZM27.9906 4.5422C27.9906 4.60899 27.9706 4.67579 27.9706 4.74125C27.9706 11.7146 27.9706 18.688 27.9706 25.6614C27.982 25.8727 28.056 26.0759 28.183 26.2452C29.0736 27.4635 29.978 28.6743 30.8962 29.8775C32.8947 32.5172 34.8986 35.1547 36.9078 37.79L37.028 37.9049C37.0828 37.9303 37.1469 37.9904 37.191 37.9784C39.869 37.2303 42.5466 36.4782 45.2237 35.722L47.2035 35.1783L49.1566 34.6814C49.1713 34.5384 49.1846 34.473 49.1846 34.4075C49.1846 27.4502 49.1846 20.4928 49.1846 13.5355C49.1684 13.3665 49.1352 13.1996 49.0858 13.0372C49.0449 12.9385 48.9953 12.8437 48.9375 12.754C46.8206 9.94679 44.7005 7.14141 42.5773 4.33781C41.7317 3.23435 40.878 2.1456 40.0591 1.07688C36.7608 1.98262 33.5386 2.85763 30.3231 3.75669C29.5336 3.97845 28.7668 4.28303 27.9906 4.5422Z" fill="#3A3A3A"/>
<path d="M24.1167 25.7547H22.889C22.889 24.018 22.889 22.3161 22.889 20.6115C22.889 19.5067 22.5711 19.1914 21.4663 19.1874H19.8205V25.7547H18.6182V14.8805L19.8205 14.5986V17.9611C20.4884 17.9611 21.1056 17.9491 21.7228 17.9611C23.2671 17.9958 24.106 18.8361 24.1154 20.3657C24.1247 22.1451 24.1167 23.9205 24.1167 25.7547Z" fill="#3A3A3A"/>
<path d="M56.5175 24.1563L57.5568 23.8438V35.0933L56.6324 34.8262C56.6324 34.8649 56.6324 34.9036 56.6324 34.9424C55.8041 34.9424 54.9585 35.0493 54.1529 34.9157C53.0842 34.738 52.5298 33.9565 52.5098 32.8784C52.4884 31.7683 52.4978 30.6595 52.5004 29.5507C52.5004 28.0679 53.2953 27.2543 54.7888 27.2075C55.3379 27.1902 55.8883 27.2075 56.5121 27.2075V24.1563H56.5175ZM56.5068 28.4513C55.8749 28.4513 55.3045 28.4179 54.7341 28.4606C54.2251 28.4994 53.8096 28.7826 53.7909 29.3223C53.7495 30.5166 53.7375 31.7135 53.7909 32.9051C53.8216 33.5477 54.2718 33.8082 55.04 33.7989C55.943 33.7882 56.4707 33.4996 56.4908 32.8637C56.5388 31.4089 56.5068 29.9541 56.5068 28.4513V28.4513Z" fill="#3A3A3A"/>
<path d="M5.30794 25.4283C4.31136 26.008 3.19589 25.9239 2.11515 25.5378C1.13326 25.1865 0.69108 24.1578 0.887457 22.9996C1.06112 21.9736 1.86934 21.2509 2.97814 21.1895C3.68349 21.1494 4.39285 21.1814 5.15565 21.1814C5.15565 20.7125 5.1984 20.2917 5.1463 19.8816C5.06881 19.2671 4.62129 19.044 4.05353 19.036C3.23329 19.0253 2.41171 19.036 1.48727 19.036L1.78384 17.9793C2.66019 17.9793 3.50314 17.9379 4.33941 17.9886C5.68333 18.0701 6.44212 18.8957 6.45013 20.2423C6.46215 22.0605 6.45013 23.8786 6.45013 25.8624L5.30794 25.4283ZM5.14362 22.4078C4.44228 22.4078 3.78235 22.3797 3.12642 22.4158C2.51725 22.4505 2.14186 22.8072 2.10713 23.4271C2.07507 24.0095 2.36496 24.4637 2.95275 24.5038C4.61728 24.6174 5.31595 24.6521 5.17569 22.6897C5.17168 22.6242 5.16099 22.5588 5.14362 22.4078Z" fill="#3A3A3A"/>
<path d="M59.0316 28.1947C59.1198 27.8888 59.2093 27.5749 59.3082 27.2289C60.2166 27.2289 61.1049 27.1648 61.98 27.2449C63.2678 27.3611 63.9691 28.1867 63.9838 29.4678C63.9932 31.111 63.9972 32.7541 63.9758 34.3973C63.9758 34.6404 63.8155 34.8822 63.7086 35.1908C63.3519 34.941 63.1542 34.8021 62.9552 34.6645V34.8542C62.163 34.9223 61.3654 35.0719 60.5773 35.0385C59.1853 34.9824 58.3797 34.0633 58.3957 32.6994C58.4118 31.3354 59.2694 30.4764 60.6574 30.4217C61.316 30.395 61.9773 30.4217 62.6693 30.4217C62.6826 30.1545 62.7 29.9581 62.7013 29.7644C62.708 28.6062 62.3821 28.2882 61.1918 28.2842C60.5238 28.2842 59.8559 28.2842 59.1879 28.2762C59.1492 28.2669 59.1118 28.2308 59.0316 28.1947ZM62.6386 31.7015C61.9145 31.7015 61.2265 31.6694 60.5452 31.7121C59.9694 31.7469 59.6835 32.145 59.6582 32.694C59.6328 33.2124 59.8666 33.5811 60.3929 33.7387C61.9786 34.2143 62.7895 33.5904 62.6987 31.9566C62.6854 31.8701 62.6653 31.7848 62.6386 31.7015V31.7015Z" fill="#3A3A3A"/>
<path d="M75.0437 27.2358H76.4224C75.2975 30.8815 74.1874 34.4764 73.0693 38.098H71.9712C72.0914 37.5864 72.1528 37.0587 72.3399 36.5818C72.782 35.4516 72.5897 34.3882 72.2063 33.2875C71.5878 31.508 71.0414 29.7032 70.4696 27.9078C70.4028 27.7007 70.3507 27.4883 70.2812 27.2398H71.4983L73.2509 32.896L73.4607 32.8894C73.9817 31.0231 74.5054 29.1595 75.0437 27.2358Z" fill="#3A3A3A"/>
<path d="M17.5973 19.6562L16.395 19.9554C15.8847 18.9308 14.9629 19.1539 14.124 19.2501C13.603 19.3075 13.3225 19.715 13.3158 20.2427C13.3024 21.3114 13.2891 22.3734 13.3158 23.4381C13.3371 24.1969 13.7286 24.5215 14.5181 24.5376C15.854 24.5643 15.854 24.5643 16.4271 23.6519L17.5947 24.0794C17.5145 24.8649 17.0603 25.4152 16.3923 25.5301C15.4449 25.702 14.476 25.7201 13.5228 25.5836C12.5877 25.4299 12.0934 24.6351 12.0734 23.6772C12.0485 22.4349 12.0485 21.1925 12.0734 19.9501C12.0894 19.0283 12.6077 18.2335 13.5041 18.1119C14.4415 17.994 15.3912 18.0174 16.3215 18.1814C17.0122 18.2976 17.5051 18.836 17.5973 19.6562Z" fill="#3A3A3A"/>
<path d="M8.76264 18.0731L11.4825 17.9194V19.0509C10.9869 19.0509 10.5046 19.0403 10.0237 19.0509C9.24089 19.0723 8.88955 19.421 8.88688 20.2078C8.87753 22.046 8.88688 23.8842 8.88688 25.7531H7.68457V17.9261L8.78669 18.1773L8.76264 18.0731Z" fill="#3A3A3A"/>
<path d="M68.293 24.1056L69.4325 23.8384V35.0091H68.293V24.1056Z" fill="#3A3A3A"/>
<path d="M66.5957 35.0356H65.5938V27.23H66.5957V35.0356Z" fill="#3A3A3A"/>
<path d="M65.584 24.8565V23.856H66.5993V24.8565H65.584Z" fill="#3A3A3A"/>
<path d="M45.2182 35.7222C42.541 36.4757 39.8635 37.2278 37.1854 37.9785C37.1414 37.9906 37.0772 37.9304 37.0225 37.9051C37.0318 37.6379 37.0505 37.3707 37.0505 37.1035C37.0505 30.4819 37.0505 23.8594 37.0505 17.2361V16.4131C39.2147 15.8173 41.3347 15.2416 43.4481 14.6471C45.3277 14.1207 47.2007 13.5784 49.0763 13.0347C49.1257 13.1971 49.1588 13.364 49.1751 13.533C49.1805 20.4903 49.1805 27.4477 49.1751 34.405C49.1751 34.4705 49.1618 34.5386 49.1471 34.6789L47.194 35.1758V30.4668L45.2142 31.0011L45.2182 35.7222ZM47.1539 15.9843L41.3802 17.5874V22.3686L47.1539 20.7655V15.9843ZM39.2427 25.8312V30.6004L43.1248 29.5437V24.7652L39.2427 25.8312Z" fill="white"/>
<path d="M36.9017 37.7899C34.8987 35.1528 32.8949 32.5153 30.8901 29.8774C29.9773 28.6724 29.0729 27.4616 28.1769 26.2451C28.0511 26.0741 27.979 25.8694 27.9699 25.6573C27.9619 18.6839 27.9619 11.7105 27.9699 4.73713C27.9699 4.67034 27.9832 4.60354 27.9899 4.53809C30.8701 8.33203 33.7467 12.1287 36.6198 15.9279C36.7979 16.1769 36.8957 16.4742 36.9004 16.7802C36.9119 23.7848 36.9124 30.788 36.9017 37.7899ZM35.0421 21.6496C35.0421 20.3912 34.9352 19.3211 35.0648 18.2805C35.2986 16.4022 33.7556 15.5632 32.9782 14.2728C32.9074 15.6781 32.8993 17.0501 32.9154 18.4221C32.912 18.6389 32.9719 18.8519 33.0877 19.0352C33.6808 19.8595 34.302 20.6637 35.0421 21.6496Z" fill="#3A3A3A"/>
<path d="M36.9007 37.7894C36.9007 30.7884 36.9007 23.7865 36.9007 16.7838C36.896 16.4777 36.7982 16.1804 36.6201 15.9315C33.7551 12.1268 30.8784 8.33022 27.9902 4.54162C28.7664 4.27444 29.5332 3.97787 30.3227 3.75745C33.5382 2.85839 36.7604 1.98337 40.0587 1.07764C40.8776 2.14635 41.7313 3.23378 42.5675 4.33723C44.6934 7.13994 46.8135 9.94532 48.9277 12.7534C48.9856 12.8431 49.0352 12.9379 49.076 13.0366C47.2058 13.5709 45.3275 14.1227 43.4479 14.649C41.3345 15.2435 39.2144 15.8193 37.0503 16.4151V17.2407C37.0503 23.864 37.0503 30.4865 37.0503 37.1081C37.0503 37.3753 37.0316 37.6425 37.0222 37.9096L36.9007 37.7894Z" fill="#CACACA"/>
<path d="M45.2168 35.7227V31.0016L47.1966 30.4673V35.1817L45.2168 35.7227Z" fill="#CACACA"/>
<path d="M47.1546 15.9834V20.7646L41.3809 22.3677V17.5918L47.1546 15.9834Z" fill="#CACACA"/>
<path d="M39.2422 25.8299L43.1243 24.7612V29.5371L39.2422 30.5991V25.8299Z" fill="#CACACA"/>
<path d="M35.0429 21.6504C34.3028 20.6685 33.6816 19.8643 33.0885 19.0374C32.9727 18.8541 32.9128 18.641 32.9161 18.4242C32.9001 17.0522 32.9081 15.6803 32.9789 14.2749C33.7564 15.564 35.2994 16.403 35.0656 18.2826C34.936 19.3179 35.0429 20.388 35.0429 21.6504Z" fill="white"/>
</svg>

<svg width="77" height="39" fill="none" xmlns="http://www.w3.org/2000/svg"><path d="M49.696 35.18l-12.843 3.548c-.309-.401-.614-.802-.92-1.203a8514.494 8514.494 0 0 1-8.196-10.84 1.507 1.507 0 0 1-.322-.827c-.016-7.245-.02-14.49-.01-21.733 0-.042.011-.086.03-.213L40.253.36c.733.96 1.47 1.925 2.205 2.892 2.325 3.06 4.645 6.12 6.962 9.184.174.22.279.488.299.769.016 7.243.02 14.486.01 21.73a2.01 2.01 0 0 1-.033.244zM27.991 4.542c0 .067-.02.134-.02.2v20.92c.011.21.085.414.212.583.89 1.218 1.795 2.43 2.713 3.633 1.999 2.64 4.003 5.277 6.012 7.912l.12.115c.055.025.119.085.163.073 2.678-.748 5.356-1.5 8.033-2.256l1.98-.544 1.953-.497c.014-.143.028-.208.028-.273V13.534a2.548 2.548 0 0 0-.1-.498 1.783 1.783 0 0 0-.148-.283 5150.125 5150.125 0 0 0-6.36-8.416c-.845-1.104-1.699-2.192-2.518-3.261-3.298.906-6.52 1.78-9.736 2.68-.79.221-1.556.526-2.332.785zm-3.874 21.213h-1.228v-5.143c0-1.105-.318-1.42-1.423-1.425H19.82v6.568h-1.202V14.88l1.203-.282v3.362c.667 0 1.285-.012 1.902 0 1.544.035 2.383.875 2.392 2.405.01 1.78.002 3.555.002 5.389zm32.4-1.599l1.04-.312v11.25l-.925-.268v.116c-.828 0-1.673.107-2.48-.026-1.068-.178-1.622-.96-1.642-2.038-.022-1.11-.012-2.218-.01-3.327 0-1.483.795-2.297 2.289-2.343.549-.018 1.1 0 1.723 0v-3.052h.005zm-.01 4.295c-.632 0-1.203-.033-1.773.01-.509.038-.924.322-.943.861a45.153 45.153 0 0 0 0 3.583c.03.643.48.903 1.249.894.903-.01 1.43-.3 1.45-.935.049-1.455.017-2.91.017-4.413zm-51.2-3.023c-.996.58-2.111.496-3.192.11C1.133 25.186.691 24.158.887 23c.174-1.026.982-1.75 2.091-1.81.705-.04 1.415-.009 2.178-.009 0-.469.042-.89-.01-1.3-.077-.614-.525-.837-1.092-.845-.82-.01-1.642 0-2.567 0l.297-1.057c.876 0 1.72-.041 2.555.01 1.344.081 2.103.907 2.111 2.253.012 1.819 0 3.637 0 5.62l-1.142-.434zm-.163-3.02c-.702 0-1.362-.028-2.018.008-.609.035-.984.391-1.019 1.011-.032.582.258 1.037.846 1.077 1.664.113 2.363.148 2.223-1.814-.004-.066-.015-.131-.032-.282zm53.888 5.787l.276-.966c.909 0 1.797-.064 2.672.016 1.288.116 1.99.942 2.004 2.223.01 1.643.013 3.286-.008 4.93 0 .242-.16.484-.267.793l-.754-.527v.19c-.792.068-1.59.218-2.378.184-1.392-.056-2.197-.975-2.181-2.339.016-1.364.873-2.223 2.261-2.277.659-.027 1.32 0 2.012 0 .014-.268.031-.464.032-.658.007-1.158-.319-1.476-1.51-1.48-.667 0-1.335 0-2.003-.008-.039-.01-.076-.045-.156-.081zm3.607 3.506c-.725 0-1.413-.032-2.094.011-.576.035-.861.433-.887.982-.025.518.209.887.735 1.045 1.586.475 2.396-.149 2.306-1.782a1.665 1.665 0 0 0-.06-.256zm12.405-4.465h1.378c-1.124 3.645-2.235 7.24-3.353 10.862h-1.098c.12-.512.182-1.04.369-1.516.442-1.13.25-2.194-.134-3.294-.618-1.78-1.165-3.585-1.736-5.38-.067-.207-.12-.42-.189-.668h1.217l1.753 5.656.21-.007c.52-1.866 1.044-3.73 1.583-5.653zm-57.447-7.58l-1.202.3c-.51-1.025-1.432-.802-2.271-.706-.521.058-.802.465-.808.993a84.883 84.883 0 0 0 0 3.195c.021.759.413 1.084 1.202 1.1 1.336.026 1.336.026 1.91-.886l1.167.427c-.08.786-.535 1.336-1.203 1.451a8.96 8.96 0 0 1-2.87.054c-.934-.154-1.429-.949-1.449-1.907a92.99 92.99 0 0 1 0-3.727c.016-.922.535-1.716 1.431-1.838a9.442 9.442 0 0 1 2.818.07c.69.116 1.183.654 1.275 1.474zm-8.834-1.583l2.72-.154v1.132c-.496 0-.978-.01-1.46 0-.782.021-1.133.37-1.136 1.157-.01 1.838 0 3.676 0 5.545H7.685v-7.827l1.102.251-.024-.104zm59.53 6.033l1.14-.268V35.01h-1.14V24.106zm-1.697 10.93h-1.002V27.23h1.002v7.806zm-1.012-10.18v-1h1.015v1h-1.015z" fill="#3A3A3A"/><path d="M45.218 35.722a7895.59 7895.59 0 0 1-8.033 2.256c-.044.013-.108-.048-.163-.073.01-.267.029-.534.029-.802v-20.69c2.164-.596 4.284-1.171 6.397-1.766 1.88-.526 3.753-1.069 5.628-1.612.05.162.083.329.1.498.005 6.957.005 13.915 0 20.872 0 .066-.014.134-.029.274l-1.953.497v-4.71l-1.98.535.004 4.721zm1.936-19.738l-5.774 1.603v4.782l5.774-1.604v-4.78zm-7.911 9.847v4.77l3.882-1.057v-4.779l-3.882 1.066z" fill="#fff"/><path d="M36.902 37.79a34674.05 34674.05 0 0 0-6.012-7.913 336.834 336.834 0 0 1-2.713-3.632 1.07 1.07 0 0 1-.207-.588c-.008-6.973-.008-13.947 0-20.92 0-.067.013-.133.02-.199 2.88 3.794 5.757 7.59 8.63 11.39.178.249.276.546.28.852.012 7.005.012 14.008.002 21.01zm-1.86-16.14c0-1.259-.107-2.329.023-3.37.234-1.878-1.31-2.717-2.087-4.007a66.462 66.462 0 0 0-.063 4.15c-.003.216.057.429.173.612.593.825 1.214 1.629 1.954 2.615z" fill="#3A3A3A"/><path d="M36.9 37.79V16.783a1.504 1.504 0 0 0-.28-.852 2412.524 2412.524 0 0 0-8.63-11.39c.776-.268 1.543-.564 2.333-.785 3.215-.899 6.437-1.774 9.736-2.68.819 1.07 1.672 2.157 2.509 3.26 2.125 2.803 4.245 5.608 6.36 8.416.058.09.107.185.148.284-1.87.534-3.748 1.086-5.628 1.612-2.114.595-4.234 1.17-6.398 1.766v20.693c0 .267-.018.535-.028.802l-.121-.12zm8.317-2.067v-4.721l1.98-.535v4.715l-1.98.54z" fill="#CACACA"/><path d="M47.155 15.983v4.782l-5.774 1.603v-4.776l5.774-1.609zm-7.913 9.847l3.882-1.069v4.776L39.242 30.6v-4.77z" fill="#CACACA"/><path d="M35.043 21.65c-.74-.981-1.361-1.786-1.954-2.613a1.116 1.116 0 0 1-.173-.613 66.54 66.54 0 0 1 .063-4.15c.777 1.29 2.32 2.129 2.087 4.009-.13 1.035-.023 2.105-.023 3.367z" fill="#fff"/></svg>
